X:1
T:Venite ad me
T:Bartolomeo Barbarino
T:Source : Ghirlanda Sacra---Venetia---B.Magni ( Ang.Gardano)---1625. Editor : André Vierendeels (06/10/18) Notes : Original clefs : C1, F4 Editorial accidentals above tha staff Music collected by Leonardo Simonetti Composer known as "il Pesarino"
T:Venite ad me
T:©
T:©
T:©
T:©
T:©
T:©
T:©
T:©
C:Bartolomeo Barbarino
Z:©
%%score 1 { 2 | 3 }
L:1/8
Q:1/4=120
M:2/2
K:F
V:1 treble nm="Soprano" snm="S"
V:2 treble nm="MusicXML Part"
V:3 bass 
V:1
 G6 A/G/A/B/ | c4 c2 B2 | A6 B/A/B/c/ | dc/B/ AG/F/ E4 | D2 F2 G2 A2 | B4- B>c B>A | B4- BGcB | %7
w: Ve- * * * *|ni- te ad|me o- * * *||mnes, qui la- bo-|ra- * * * *||
 A4- AFBA |"^b" GA/B/ cd/e/ =B c2 B | c6 G/A/B/c/ | A2 FF F2 FE | F6 A/B/c/d/ | B2 GG G2 GF | %13
w: tis _ et o- ne-|ra- * * ti _ _ e- * *|stis et _ _ _|e- go re- fi- ci- am|vos et _ _ _|e- go re- fi- ci- am|
 G6 D/E/F/G/ |"^b" G4 G2 B/c/d/e/ | A4 A2 d/c/B/A/ | B2 AB G2 FG | F6 A/B/c/d/ | B2 cB A2 GA | G8 | %20
w: vos et _ _ _|e- go et _ _ _|e- go et _ _ _|e- go re- fi- ci- am|vos et _ _ _|e- go re- fi- ci- am|vos,|
 z8 | z8 | z8 | z8 | z8 | z4 B4- | B2 AG c3 B | A2 GF G3 G | G2 D/E/F/G/ E4- | E2 E2 FFGG | %30
w: |||||tol-|* li- te, tol- li-|te iu- gum me- um|su- per _ _ _ vos|_ et di- sci- te a|
 A2 F2 GGAA | B4 G4- | G2 G2 G2 F2 | E2 c2 F4- | F2 FF B4 | G4 c2 B2 | A2 d2 ^F4- | %37
w: me et di- sci- te a|me qui-|* a mi- tis|sum et hu-|* mi- lis cor-|de, mi- tis|sum et hu-|
 F2 ^FF GA/B<TAG/ | A8 | z8 | z8 | z8 | A6 A2 | B2 B2 cd e/d/c/B/ | A2 A2 AB/A/ GA/G/ | ^F8 | %46
w: * mi- lis cor- * * * *|de,||||iu- gum|e- nim me- * * * * *|num su- a- * * ve _ _|est,|
 z2 B2 Bc/B/ AB/A/ | G8 | z2 c2 cd/c/ Bc/B/ | A8 | z2 d/c/B/A/ B2 GA/B/ | %51
w: su- a- * * ve _ _|est|su- a- * * ve _ _|est|et _ _ _ o- nus _ _|
 c>d e/d/c/B/ A c/B/ A/G/F/E/ | ^FG A/G/A/F/ G4 | z2 c/B/A/G/ A2 FG/A/ | B>c d/c/B/A/ G4 | %55
w: me- * * * * * um le- * * * * *|* * * * * * ve|et _ _ _ o- nus _ _|me- * * * * * um|
 E4- E F/G<TFE/- | ^F6 F2 | G2 A2 B2 c2 | ^FG/A/ Bc/d/ e/d/c/B/ A2 | G8 | z8 | z8 | z8 | z8 | z8 | %65
w: le- * * * * ve|_ et|o- nus me- um|le- * * * * * * * * * *|ve,||||||
 z8 | z8 | z8 | z4 z2 G2 | c2 G/A/B/c/ A2 AA | d2 A/B/c/d/ B2 G2 | AB c2- c>dTc>B- | cBAG A4 | %73
w: |||ve-|ni- te _ _ _ er- go ve-|ni- te _ _ _ er- go|ad me o- * * * nes|_ qui la- bo- ra-|
 G4- GcGA | Bc dc/B/ AG/F/ E2 | ^F6 A2 | B2 cB A2 GF | G2 c2 c2 cB | c4 z4 | z2 B2 B2 A2 | B4 z4 | %81
w: tis _ et o- ne-|ra- ti e- * * * * * *|stis et|e- go re- fi- ci- am|vos, re- fi- ci- am|vos,|et e- *|go|
 z2 A2 A2 AG | A4 z4 | z2 G2 G2 F2 | G4 z4 | z2 F2 F2 FE | F4 z4 | z2 A2 B4- | B2 cB A2 GF | %89
w: re- fi- ci- am|vos|et e- *|go|re- fi- ci- am|vos|et e-|* go re- fi- ci- am|
 G2 B2 AB c/B/A/G/ | ^F2 G2 G2 GF | G8 |] %92
w: vos et e- * * * * *|go re fi- ci- am|vos.|
V:2
 z8 | z8 | z8 | z8 | z8 |"^BC" z8 | z8 | z8 | z8 | z8 | z8 | z8 | z8 | z8 | z8 | z8 | z8 | z8 | %18
 z8 | z8 | z8 | z8 | z8 | z8 | z8 | z8 | z8 | z8 | z8 | z8 | z8 | z8 | z8 | z8 | z8 | z8 | z8 | %37
 z8 | z8 | z8 | z8 | z8 | z8 | z8 | z8 | z8 | z8 | z8 | z8 | z8 | z8 | z8 | z8 | z8 | z8 | z8 | %56
 z8 | z8 | z8 | z8 | z8 | z8 | z8 | z8 | z8 | z8 | z8 | z8 | z8 | z8 | z8 | z8 | z8 | z8 | z8 | %75
 z8 | z8 | z8 | z8 | z8 | z8 | z8 | z8 | z8 | z8 | z8 | z8 | z8 | z8 | z8 | z8 | z8 |] %92
V:3
 G,6 F,2 | E,4 E,4 | F,6 E,2 | D,4 A,4 | D,2 D,2 E,2 F,2 | G,4 F,4 | B,,4 _E,4 | F,4 D,4 | %8
"^#" _E,2 C,2 G,,4 | C,4 E,4 | F,2 A,,2 B,,2 C,2 | F,,4 F,,4 | G,,2 =B,,2 C,2 D,2 | G,,4 =B,,4 | %14
 C,4 C,4 | F,,4 F,,4 | G,,2 F,,2 C,4 | F,,4 F,,4 | G,,4 D,4 | G,,6 G,2 | D,2 E,2 F,2 D,2 | %21
 A,,6 F,,2 | G,,2 A,,2 B,,2 C,2 | F,2 D,2 E,2 G,2 | ^F,2 G,2 D,4 | G,,8 | G,4 E,4 | F,4 C,4 | %28
 C,2 D,2 A,,4- | A,,2 A,,2 D,2 C,2 | F,2 D,2 _E,2 F,2 | B,,4 _E,4- | E,2 _E,2 E,2 F,2 | C,4 D,4 | %34
 D,4 D,4 | _E,4 =E,4 | F,4 D,4 | D,4 _E,4 | D,4 D,2 G,2 | E,2 A,2 F,2 B,,2 | G,,2 C,2 A,,2 D,2 | %41
 B,,2 G,,2 A,,4 | D,4 D,4 | D,4 E,4 | F,4 E,4 | D,2 D,2 D,2 C,2 | B,,4 D,4 | _E,2 E,2 E,2 D,2 | %48
 C,4 E,4 | F,2 F,2 F,2 E,2 | D,4 G,4 | E,4 F,4 | D,4 =B,,4 | C,4 F,4 | D,4 E,4 | A,8 | D,6 D,2 | %57
 _E,8 | D,8 | G,,6 G,,2 | A,,2 B,,2 C,2 F,,2 | G,,4 C,2 C,2 | D,2 E,2 F,2 B,,2 | C,4 F,,2 F,,2 | %64
 G,,2 A,,2 B,,2 _E,2 | F,4 B,,2 B,,2 | C,2 D,2 _E,2 C,2 | D,2 B,,2 C,2 D,2 | G,6 G,2 | E,4 F,4 | %70
 ^F,4 G,4 | F,4 G,4 | C,4 F,,4 | C,4 C,4 | G,,4 A,,4 | D,4 D,4 | G,,4 D,4 | G,,2 F,,2 G,,4 | %78
 C,2 E,2 F,2 G,2 | C,2 D,2 _E,2 F,2 | B,,2 D,2 _E,2 F,2 | B,,2 ^C,2 D,2 E,2 | A,,2 ^C,2 D,2 E,2 | %83
 A,,2 =B,,2 C,2 D,2 |"^#" G,,2 =B,,2 C,2 D,2 | G,,2 A,,2 B,,2 C,2 | F,,2 G,,2 A,,2 B,,2 | %87
 F,,2 F,2 D,4 | _E,2 C,2 D,4 | G,4 F,2 _E,2 | D,2 C,2 D,4 | G,,8 |] %92

